ui/public/imgs/providers/litessl.svg

<svg xmlns="http://www.w3.org/2000/svg" xmlns:xlink="http://www.w3.org/1999/xlink" fill="none" version="1.1" width="160" height="160" viewBox="-12 0 172 34"><defs><clipPath><rect x="0" y="0" width="148" height="34" rx="0"/></clipPath></defs><g clip-path="url(#master_svg0_16_0607)"><g><g><path d="M7.1578689,0.6048126220703125L7.1578689,26.955901622070314L14.513469,26.955901622070314L18.061844,33.25394062207031L0,33.25394062207031L0,0.6048126220703125L7.1578689,0.6048126220703125Z" fill="#1E1E42" fill-opacity="1" style="mix-blend-mode:passthrough"/></g><g><path d="M137.0924392125,0.6048126220703125L137.0924392125,26.955901622070314L144.4480393125,26.955901622070314L147.9964143125,33.25394062207031L129.9345703125,33.25394062207031L129.9345703125,0.6048126220703125L137.0924392125,0.6048126220703125Z" fill="#6A4DFD" fill-opacity="1" style="mix-blend-mode:passthrough"/></g><g><rect x="21.3369140625" y="14.50469970703125" width="6.640172481536865" height="18.85790252685547" rx="0" fill="#1E1E42" fill-opacity="1" style="mix-blend-mode:passthrough"/></g><g><path d="M33.1181640625,11.734129385156251L33.1181640625,5.56646728515625L40.0639209625,5.56646728515625L40.0639209625,11.734129385156251L44.877776062500004,11.734129385156251L44.877776062500004,17.430976285156248L40.0639209625,17.430976285156248L40.0639209625,25.90924828515625C40.0639209625,26.68428028515625,40.1322288625,27.27098828515625,40.2724380625,27.67299128515625C40.4126477625,28.07499328515625,40.6679000625,28.34661528515625,41.0381965625,28.49510228515625C41.4084920625,28.64358928515625,41.9477596625,28.71602228515625,42.6595935625,28.71602228515625C43.1233620625,28.71602228515625,43.5152290625,28.70153428515625,43.8387890625,28.67618328515625C44.162350062499996,28.65083128515625,44.4463640625,28.61099228515625,44.6944250625,28.55666928515625L44.6944250625,33.48210528515625C43.3965890625,33.61610828515625,42.195823662500004,33.68129528515625,41.0849323625,33.68129528515625C38.9566254625,33.68129528515625,37.3639912625,33.49297128515625,36.3178119625,33.11994128515625C35.2680396625,32.74691028515625,34.4735202625,32.098638285156255,33.9342533925,31.17873528515625C33.3949865125,30.25883628515625,33.1253530812,28.94418328515625,33.1253530812,27.23477028515625L33.1253530812,16.62334928515625" fill="#1E1E42" fill-opacity="1" style="mix-blend-mode:passthrough"/></g><g><path d="M68.6666696875,32.03707913867187C67.6456606875,32.70708513867187,66.4556786875,33.203251138671874,65.1003206875,33.52195513867187C63.7449616875,33.84065813867187,62.4363426875,34.00363313867187,61.1708616875,34.00363313867187C56.8747014875,34.00363313867187,53.6175307875,32.89903113867187,51.4029407875,30.686205138671873C49.1883500875,28.473381138671876,48.0810546875,25.373255138671876,48.0810546875,21.385823138671874C48.0810546875,17.398391738671876,49.0697105575,14.392428838671876,51.0434293875,12.281009438671875C53.017147987499996,10.169590638671876,55.709883687499996,9.115692138671875,59.1216476875,9.115692138671875C62.5334096875,9.115692138671875,65.1830066875,10.169590638671876,67.1567266875,12.281009438671875C69.1304456875,14.392428838671876,70.11910068750001,17.427366238671873,70.11910068750001,21.385823138671874C70.11910068750001,21.824042138671874,70.0903396875,22.450587138671874,70.0400086875,23.261835138671877L54.3689136875,23.261835138671877C54.9585122875,27.017481138671876,57.2306260875,28.893494138671876,61.1780566875,28.893494138671876C63.942699687499996,28.893494138671876,66.4413036875,28.006191138671873,68.6702686875,26.227962138671874L68.6702686875,32.03707913867187L68.6666696875,32.03707913867187ZM64.0325716875,18.368993738671875C63.6838446875,16.913092638671877,63.0798696875,15.837463838671875,62.2206386875,15.138486838671875C61.3614066875,14.439508938671874,60.3260116875,14.091831638671875,59.1180546875,14.091831638671875C57.9891891875,14.091831638671875,57.0292949875,14.457617238671876,56.2383708875,15.181946238671875C55.4474472875,15.909895438671875,54.8902034875,16.971037838671876,54.5666460875,18.368992838671875L64.0325716875,18.368993738671875Z" fill="#1E1E42" fill-opacity="1" style="mix-blend-mode:passthrough"/></g><g><path d="M85.03876353125,33.862381C80.87202983125,33.862381,77.16906233125,32.96059,73.92626953125,31.157009L73.92626953125,24.301239C75.62316303125,25.358757,77.49262043125,26.246063,79.52745533125,26.959526C81.56588273125,27.676615,83.41736983125,28.031532,85.08190253125,28.031532C86.44085453125,28.031532,87.51219753125,27.691099,88.29952853125,27.006605C89.08685753125,26.322115,89.47872453125,25.547083,89.47872453125,24.674267C89.47872453125,23.461014,89.01495653125,22.349173,88.09101053124999,21.338734C87.16347153125,20.328293,85.68228653125,19.513424,83.64745143125,18.890501C81.29984333125,18.14444,79.47352503125,17.39114,78.16131113125,16.626972C76.84909773125,15.866426,75.86044183125,14.910313,75.19893693125,13.75863C74.53383893125,12.610569,74.20308924125,11.147425,74.20308924125,9.372818C74.20308924125,7.6923747,74.60214692125,6.1640396,75.40745413125,4.7805715C76.20916243125,3.3971031,77.39195753125,2.2852578,78.94864223125,1.4450363C80.50532673125,0.60481471,82.36759183125,0.13762252,84.52825853125,0.047081381C84.80508353125,0.018108223,85.23649453125,0,85.82609353125,0C87.42951653125,0,89.04371953125,0.16297401,90.66511753125,0.48892206C92.28651853125,0.81487012,93.65265453125,1.2277375,94.76354453125,1.7239031L94.76354453125,7.7394567C93.55917753125,7.2106967,92.15348853125,6.7760987,90.55007153125,6.4320421C88.94305553125,6.0916071,87.52298753125,5.9177685,86.28986153125,5.9177685C84.71519953125,5.9177685,83.51084043125,6.1966352,82.68037033125,6.7579904C81.84630203125,7.3193445,81.42927263125,8.0943775,81.42927263125,9.0903292C81.42927263125,9.9921188,81.87506863125,10.799746,82.77024843125,11.516832C83.66543293125,12.233917,85.05314753125,12.914787,86.93698353125001,13.570305C89.19112053125,14.2222,91.02462153125,14.961018,92.44469253125,15.786752C93.86476553125,16.612488,94.97565253125,17.684494,95.77735753125,19.006393C96.57907153125001,20.328295,96.98172153125,21.983387,96.98172153125,23.975288C96.98172153125,25.967194,96.55030453124999,27.549852,95.68389153125,29.012999C94.82106553125,30.476145,93.60951653125,31.616961,92.04923853125,32.442692C90.48896053125,33.264809,88.67702053125,33.724758,86.60983053125,33.81892C86.26829753125,33.847897,85.74700653125,33.866001,85.03517053125,33.866001L85.03876353125,33.862381Z" fill="#6A4DFD" fill-opacity="1" style="mix-blend-mode:passthrough"/></g><g><path d="M112.897406109375,33.862381C108.730672409375,33.862381,105.027710409375,32.96059,101.784912109375,31.157009L101.784912109375,24.301239C103.481805609375,25.358757,105.351268809375,26.246063,107.386092709375,26.959526C109.424525309375,27.676615,111.276006709375,28.031532,112.940545109375,28.031532C114.299497109375,28.031532,115.370845109375,27.691099,116.158175109375,27.006605C116.945505109375,26.322115,117.337372109375,25.547083,117.337372109375,24.674267C117.337372109375,23.461014,116.873599109375,22.349173,115.949664109375,21.338734C115.022129109375,20.328293,113.540934109375,19.513424,111.506110209375,18.890501C109.15850210937501,18.14444,107.332190009375,17.39114,106.019965209375,16.626972C104.707751309375,15.866426,103.719095209375,14.910313,103.057596009375,13.75863C102.392498019375,12.610569,102.061753779375,11.147425,102.061753779375,9.372818C102.061753779375,7.6923747,102.460806009375,6.1640396,103.266118609375,4.7805715C104.067832709375,3.3971031,105.247029109375,2.2852578,106.807306809375,1.4450363C108.363985509375,0.60481471,110.226262109375,0.13762252,112.386917109375,0.047081381C112.663737109375,0.018108223,113.095155109375,0,113.684747109375,0C115.288165109375,0,116.90237810937501,0.16297401,118.523765109375,0.48892206C120.145164109375,0.81487012,121.511303109375,1.2277375,122.62219210937499,1.7239031L122.62219210937499,7.7394567C121.417827109375,7.2106967,120.012136109375,6.7760987,118.408718109375,6.4320421C116.805302109375,6.0916071,115.385229109375,5.9177685,114.148508109375,5.9177685C112.573848109375,5.9177685,111.369483009375,6.1966352,110.539012909375,6.7579904C109.704944609375,7.3193445,109.287909509375,8.0943775,109.287909509375,9.0903292C109.287909509375,9.9921188,109.733699809375,10.799746,110.632478709375,11.516832C111.527658509375,12.233917,112.915377109375,12.914787,114.799212109375,13.570305C117.053345109375,14.2222,118.890451109375,14.961018,120.31051410937499,15.786752C121.730589109375,16.612488,122.841478109375,17.684494,123.643181109375,19.006393C124.444895109375,20.328295,124.847546109375,21.983387,124.847546109375,23.975288C124.847546109375,25.967194,124.416126109375,27.549852,123.549715109375,29.012999C122.686890109375,30.476145,121.471741109375,31.616961,119.915062109375,32.442692C118.354784109375,33.264809,116.542845109375,33.724758,114.475654109375,33.81892C114.134114109375,33.847897,113.612829109375,33.866001,112.900994109375,33.866001L112.897406109375,33.862381Z" fill="#6A4DFD" fill-opacity="1" style="mix-blend-mode:passthrough"/></g><g><rect x="21.27587890625" y="5.4288330078125" width="6.640172481536865" height="5.997443675994873" rx="0" fill="#1E1E42" fill-opacity="1" style="mix-blend-mode:passthrough"/></g></g></g></svg>

<svg xmlns="http://www.w3.org/2000/svg" width="200" height="200" fill="none" viewBox="-4.82 9.6 156.78 14.8"><g><path fill="#1e1e42" d="M7.158.605v26.35h7.355l3.549 6.299H0V.604z" style="mix-blend-mode:passthrough"/><path fill="#6a4dfd" d="M137.092.605v26.35h7.356l3.548 6.299h-18.061V.604z" style="mix-blend-mode:passthrough"/><rect width="6.64" height="18.858" x="21.337" y="14.505" fill="#1e1e42" rx="0" style="mix-blend-mode:passthrough"/><path fill="#1e1e42" d="M33.118 11.734V5.566h6.946v6.168h4.814v5.697h-4.814v8.478q-.001 1.162.208 1.764.21.602.766.822.554.222 1.622.221.694 0 1.179-.04a6 6 0 0 0 .855-.12v4.926q-1.944.2-3.61.2c-2.127 0-3.72-.189-4.766-.562q-1.575-.56-2.384-1.941-.809-1.38-.809-3.944V16.623m35.542 15.414q-1.532 1.006-3.567 1.485-2.032.48-3.93.482-6.443 0-9.767-3.318-3.322-3.32-3.322-9.3c0-3.988.989-6.994 2.962-9.105q2.961-3.166 8.079-3.165c3.411 0 6.061 1.054 8.035 3.165q2.96 3.166 2.962 9.105-.002.658-.079 1.876H54.369q.887 5.632 6.81 5.631 4.147.001 7.491-2.665v5.81zM64.033 18.37q-.524-2.183-1.812-3.23-1.29-1.049-3.103-1.047-1.693.002-2.88 1.09-1.186 1.091-1.671 3.187z" style="mix-blend-mode:passthrough"/><path fill="#6a4dfd" d="M85.039 33.862q-6.25 0-11.113-2.705v-6.856c1.697 1.058 3.567 1.945 5.601 2.659q3.058 1.074 5.555 1.072 2.037.001 3.218-1.025 1.18-1.026 1.179-2.333-.001-1.82-1.388-3.335-1.392-1.515-4.444-2.448-3.518-1.12-5.486-2.264-1.968-1.14-2.962-2.868-.997-1.724-.996-4.386-.001-2.519 1.204-4.592 1.205-2.076 3.542-3.336c1.556-.84 3.419-1.307 5.58-1.398A14 14 0 0 1 85.825 0q2.406 0 4.84.489 2.43.49 4.098 1.235v6.015q-1.808-.792-4.214-1.307c-1.607-.34-3.027-.514-4.26-.514q-2.364 0-3.61.84-1.25.84-1.25 2.332-.001 1.352 1.34 2.427c.895.717 2.283 1.398 4.167 2.053q3.38.978 5.508 2.217 2.13 1.236 3.332 3.22 1.204 1.98 1.205 4.968c0 1.992-.432 3.575-1.298 5.038q-1.294 2.193-3.635 3.43-2.339 1.234-5.44 1.376c-.34.029-.862.047-1.574.047zm27.858 0q-6.249 0-11.112-2.705v-6.856q2.547 1.587 5.601 2.659 3.058 1.074 5.555 1.072 2.037.001 3.217-1.025t1.18-2.333q-.001-1.82-1.388-3.335-1.393-1.515-4.444-2.448-3.52-1.12-5.486-2.264-1.968-1.14-2.962-2.868-.998-1.724-.996-4.386-.002-2.519 1.204-4.592 1.202-2.076 3.541-3.336c1.557-.84 3.42-1.307 5.58-1.398A14 14 0 0 1 113.685 0q2.405 0 4.839.489 2.431.49 4.098 1.235v6.015q-1.807-.792-4.213-1.307c-1.604-.34-3.024-.514-4.26-.514q-2.364 0-3.61.84-1.251.84-1.251 2.332-.002 1.352 1.344 2.427c.896.717 2.283 1.398 4.167 2.053q3.38.978 5.512 2.217 2.13 1.236 3.332 3.22 1.204 1.98 1.205 4.968c0 1.992-.432 3.575-1.298 5.038-.863 1.463-2.078 2.604-3.635 3.43q-2.339 1.234-5.44 1.376-.508.045-1.574.047z" style="mix-blend-mode:passthrough"/><rect width="6.64" height="5.997" x="21.276" y="5.429" fill="#1e1e42" rx="0" style="mix-blend-mode:passthrough"/></g></svg>
